X:1
T:Christmas Song, 666.12.12
T:Christmas Song, 666.12.12
T:Karl Pomeroy Harrington, 1904
T:Public Domain Courtesy of the Cyber Hymnal™
C:Karl Pomeroy Harrington, 1904
Z:Public Domain
Z:Courtesy of the Cyber Hymnal™
%%score ( 1 2 ) ( 3 4 )
L:1/8
Q:1/4=110
M:3/4
K:G
V:1 treble 
V:2 treble 
V:3 bass 
V:4 bass 
V:1
 [B,D]>[B,E] | [B,D]2 [B,G]2 [B,E]2 | [CF]4 [CD]>[CD] | [B,D]2 [DG]2 [GB]2 | [Fd]4 [CD]>[CE] | %5
 [B,D]2 [DG]2 [DE]2 | [DF]4 [DF]>[DF] | [^CG]2 [CF]2 [CE]2 | D4 [Fd]>[Fd] | [Ge]2 [Gd]2 [DB]2 | %10
 [B,A]2 [B,G]2 [B,E]2 | [CD]2 [CF]2 [CA]2 | [Cd]4 [Fd]>[Fd] | [=Fe]2 [Fd]2 [FB]2 | %14
 [EA]2 [EG]2 [Gc]2 | [FB]2 [FA]2 D2 | [DG]4 |] %17
V:2
 x2 | x6 | x6 | x6 | x6 | x6 | x6 | x6 | D4 x2 | x6 | x6 | x6 | x6 | x6 | x6 | x4 D2 | x4 |] %17
V:3
 [G,,G,]>[G,,G,] | [G,,G,]2 [G,,D,]2 [G,,D,]2 | [A,,D,]4 [D,F,]>[D,F,] | G,2 [G,B,]2 [G,D]2 | %4
 [A,C]4 [D,F,]>[D,F,] | G,2 [G,,B,]2 [G,,_B,]2 | [A,,A,]4 [A,,A,]>[A,,A,] | %7
 [A,,B,]2 [A,,A,]2 [A,,G,]2 | [D,F,]4 [D,C]>[D,C] | [G,B,]2 [G,B,]2 G,2 | %10
 [G,,D,]2 [G,,D,]2 [G,,G,]2 | [A,,F,]2 [A,,A,]2 [D,F,]2 | [D,F,]4 [D,C]>[D,C] | %13
 [G,B,]2 [G,B,]2 [G,D]2 | C2 C2 [A,_E]2 | [D,D]2 [D,C]2 [D,C]2 | [G,,B,]4 |] %17
V:4
 x2 | x6 | x6 | G,2 x4 | x6 | G,2 x4 | x6 | x6 | x6 | x6 | x6 | x6 | x6 | x6 | C2 C2 x2 | x6 | %16
 x4 |] %17

